<?xml version="1.0" encoding="UTF-8"?>
<map version="1.10" tiledversion="1.11.0" orientation="orthogonal" renderorder="right-down" width="32" height="42" tilewidth="32" tileheight="32" infinite="0" nextlayerid="11" nextobjectid="56">
 <tileset firstgid="1" source="../../spritesheets/slates.tsx"/>
 <tileset firstgid="1289" source="../../spritesheets/Overworld.tsx"/>
 <tileset firstgid="2729" source="[Base]BaseChip_pipo.tsx"/>
 <tileset firstgid="3793" source="[A]Water_pipo.tsx"/>
 <tileset firstgid="6865" source="[A]WaterFall_pipo.tsx"/>
 <tileset firstgid="7441" source="[A]Wall-Up_pipo.tsx"/>
 <objectgroup id="4" name="object layer 1">
  <object id="1" name="Start Position" type="start" x="513.334" y="1181.33">
   <point/>
  </object>
  <object id="12" name="teleport1" x="290.667" y="841.333" width="26.6667" height="44">
   <properties>
    <property name="destination" value="shop-1"/>
   </properties>
  </object>
  <object id="13" name="teleport2" x="574.667" y="846.666" width="29.3333" height="37.3334">
   <properties>
    <property name="destination" value="gallery"/>
   </properties>
  </object>
  <object id="14" name="teleport3" x="94.6667" y="1117.33" width="33.3333" height="33.3333">
   <properties>
    <property name="destination" value="shop-4"/>
   </properties>
  </object>
  <object id="16" name="message" x="421" y="786.667" width="54.6667" height="16">
   <properties>
    <property name="msg" value="Welcome to my RPG JS demo!"/>
   </properties>
  </object>
  <object id="17" name="wall-0002" x="449.333" y="979.333" width="11.3333" height="146.667">
   <properties>
    <property name="collision" type="bool" value="true"/>
   </properties>
  </object>
  <object id="18" name="wall-0001" x="563" y="979.333" width="11.3333" height="146.667">
   <properties>
    <property name="collision" type="bool" value="true"/>
   </properties>
  </object>
  <object id="20" name="wall-0010" x="737" y="704.333" width="7.99997" height="191">
   <properties>
    <property name="collision" type="bool" value="true"/>
   </properties>
  </object>
  <object id="22" name="wall-0055" x="827.667" y="857.5" width="66.3333" height="37.3333">
   <properties>
    <property name="collision" type="bool" value="true"/>
   </properties>
  </object>
  <object id="23" name="wall-0056" x="737.5" y="857.333" width="66.6666" height="37.3333">
   <properties>
    <property name="collision" type="bool" value="true"/>
   </properties>
  </object>
  <object id="24" name="wall-0050" x="745" y="705.667" width="142" height="9.3333">
   <properties>
    <property name="collision" type="bool" value="true"/>
   </properties>
  </object>
  <object id="25" name="wall-0015" x="745" y="792.667" width="142" height="9.3333">
   <properties>
    <property name="collision" type="bool" value="true"/>
   </properties>
  </object>
  <object id="26" name="teleport5" x="833.333" y="736.833" width="29.3333" height="30.8334">
   <properties>
    <property name="destination" value="castle-entrance"/>
    <property name="x" type="int" value="550"/>
    <property name="y" type="int" value="553"/>
   </properties>
  </object>
  <object id="27" name="teleport4" x="801.333" y="864.083" width="29.3333" height="30.8334">
   <properties>
    <property name="destination" value="castle-entrance"/>
   </properties>
  </object>
  <object id="31" name="wall-0010" x="419.5" y="775.333" width="55.8333" height="20.667">
   <properties>
    <property name="collision" type="bool" value="true"/>
   </properties>
  </object>
  <object id="33" name="wall-0011" x="64.3333" y="1053.67" width="384.333" height="66.667">
   <properties>
    <property name="collision" type="bool" value="true"/>
   </properties>
  </object>
  <object id="34" name="wall-0012" x="129.834" y="1120.67" width="318.333" height="25.667">
   <properties>
    <property name="collision" type="bool" value="true"/>
   </properties>
  </object>
  <object id="35" name="wall-0013" x="63.8335" y="1119.17" width="32.333" height="27.667">
   <properties>
    <property name="collision" type="bool" value="true"/>
   </properties>
  </object>
  <object id="36" name="wall-0014" x="576.833" y="1051.67" width="384.333" height="95.667">
   <properties>
    <property name="collision" type="bool" value="true"/>
   </properties>
  </object>
  <object id="37" name="wall-0021" x="256.833" y="606.167" width="701.333" height="95.667">
   <properties>
    <property name="collision" type="bool" value="true"/>
   </properties>
  </object>
  <object id="38" name="wall-0022" x="65.3335" y="605.833" width="59.9997" height="95.667">
   <properties>
    <property name="collision" type="bool" value="true"/>
   </properties>
  </object>
  <object id="39" name="wall-0024" x="866" y="126.167" width="95.9997" height="95.667">
   <properties>
    <property name="collision" type="bool" value="true"/>
   </properties>
  </object>
  <object id="40" name="wall-0023" x="66.0001" y="126.167" width="672" height="95.667">
   <properties>
    <property name="collision" type="bool" value="true"/>
   </properties>
  </object>
  <object id="41" name="wall-0025" x="736.667" y="37.4998" width="128" height="23.0003">
   <properties>
    <property name="collision" type="bool" value="true"/>
   </properties>
  </object>
  <object id="42" name="wall-0026" x="737.5" y="50.9999" width="12" height="174.5">
   <properties>
    <property name="collision" type="bool" value="true"/>
   </properties>
  </object>
  <object id="43" name="wall-0027" x="851" y="50.25" width="12" height="174.5">
   <properties>
    <property name="collision" type="bool" value="true"/>
   </properties>
  </object>
  <object id="44" name="wall-0028" x="129.364" y="531.326" width="12" height="174.5">
   <properties>
    <property name="collision" type="bool" value="true"/>
   </properties>
  </object>
  <object id="45" name="wall-0029" x="242.455" y="531.083" width="12" height="174.5">
   <properties>
    <property name="collision" type="bool" value="true"/>
   </properties>
  </object>
  <object id="47" name="wall-0052" x="736.5" y="704.833" width="8" height="189.833">
   <properties>
    <property name="collision" type="bool" value="true"/>
   </properties>
  </object>
  <object id="48" name="wall-0051" x="886.5" y="705.583" width="8" height="189.833">
   <properties>
    <property name="collision" type="bool" value="true"/>
   </properties>
  </object>
  <object id="50" name="wall-0060" x="160" y="225.75" width="479" height="146.5">
   <properties>
    <property name="collision" type="bool" value="true"/>
   </properties>
  </object>
  <object id="51" name="wall-0061" x="221.5" y="372.75" width="99" height="42.1667">
   <properties>
    <property name="collision" type="bool" value="true"/>
   </properties>
  </object>
  <object id="52" name="wall-0062" x="351.167" y="373.583" width="99" height="42.1667">
   <properties>
    <property name="collision" type="bool" value="true"/>
   </properties>
  </object>
  <object id="53" name="wall-0063" x="479.833" y="372.917" width="99" height="42.1667">
   <properties>
    <property name="collision" type="bool" value="true"/>
   </properties>
  </object>
  <object id="54" name="wall-0064" x="160.167" y="371.917" width="32.6667" height="43.8334">
   <properties>
    <property name="collision" type="bool" value="true"/>
   </properties>
  </object>
  <object id="55" name="wall-0065" x="606.667" y="372.083" width="32.6667" height="43.8334">
   <properties>
    <property name="collision" type="bool" value="true"/>
   </properties>
  </object>
 </objectgroup>
 <layer id="1" name="Tile Layer 1" width="32" height="42">
  <data encoding="csv">
4247,1073744798,2729,2729,2729,2729,2729,2729,2729,2729,2729,2729,2729,2729,2729,2729,2729,2729,2729,2729,2729,2729,2729,2729,2734,2734,2729,2729,2729,2729,3221228446,4247,
4247,1073744798,2729,2729,2729,2729,2729,2729,2729,2729,2729,2729,2729,2729,2729,2729,2729,2729,2729,2729,2729,2729,2729,2729,2734,2734,2729,2729,2729,2729,3221228446,4247,
4247,1073744798,2729,2729,2729,2729,2729,2729,2729,2729,2729,2729,2729,2729,2729,2729,2729,2729,2729,2729,2729,2729,2729,2729,2734,2734,2729,2729,2729,2729,3221228446,4247,
4247,1073744798,2729,2729,2729,2729,2729,2729,2729,2729,2729,2729,2729,2729,2729,2729,2729,2729,2729,2729,2729,2729,2729,2729,2734,2734,2729,2729,2729,2729,3221228446,4247,
4247,1073744798,2729,2729,2729,2729,2729,2729,2729,2729,2729,2729,2729,2729,2729,2729,2729,2729,2729,2729,2729,2729,2729,2729,2734,2734,2729,2729,2729,2729,3221228446,4247,
4247,1073744798,2729,2729,2729,2729,2729,2729,2729,2729,2729,2729,2729,2729,2729,2729,2729,2729,2729,2729,2729,2729,2729,2729,2734,2734,2729,2729,2729,2729,3221228446,4247,
4247,1073744798,2729,2729,2729,2729,2729,2729,2729,2729,2729,2729,2729,2729,2729,2729,2729,2729,2729,2729,2729,2729,2729,2729,2734,2734,2729,2729,2729,2729,3221228446,4247,
4247,1073744798,2729,2729,2729,2729,2729,2729,2729,2729,2729,2729,2729,2729,2729,2729,2729,2729,2729,2729,2729,2729,2729,2729,2734,2734,2729,2729,2729,2729,3221228446,4247,
4247,1073744798,2729,2729,2729,2729,2729,2729,2729,2729,2729,2729,2729,2729,2729,2729,2729,2729,2729,2729,2729,2729,2729,2729,2734,2734,2729,2729,2729,2729,3221228446,4247,
4247,1073744798,2729,2729,2729,2729,2729,2729,2729,2729,2729,2729,2729,2729,2729,2729,2729,2729,2729,2729,2729,2729,2729,2729,2734,2734,2729,2729,2729,2729,3221228446,4247,
4247,1073744798,2729,2729,2729,2729,2729,2729,2729,2729,2729,2729,2729,2729,2729,2729,2729,2729,2729,2729,2729,2729,2729,2729,2734,2734,2729,2729,2729,2729,3221228446,4247,
4247,1073744798,2729,2729,2729,2729,2729,2729,2729,2729,2729,2729,2729,2729,2729,2729,2729,2729,2729,2729,2729,2734,2734,2734,2734,2734,2729,2729,2729,2729,3221228446,4247,
4247,1073744798,2729,2729,2729,2729,2729,2729,2729,2729,2729,2729,2729,2729,2729,2729,2729,2729,2729,2729,2729,2734,2734,2734,2734,2734,2729,2729,2729,2729,3221228446,4247,
4247,1073744798,2729,2729,2729,2729,2729,2729,2729,2729,2729,2729,2729,2729,2729,2729,2729,2729,2729,2729,2729,2734,2734,2729,2734,2734,2729,2729,2729,2729,3221228446,4247,
4247,1073744798,2729,2729,2729,2734,2734,2734,2734,2734,2734,2734,2734,2734,2734,2734,2734,2734,2734,2734,2734,2734,2734,2734,2734,2734,2729,2729,2729,2729,3221228446,4247,
4247,1073744798,2729,2729,2729,2734,2734,2734,2734,2734,2734,2734,2734,2734,2734,2734,2734,2734,2734,2734,2734,2734,2734,2734,2734,2734,2729,2729,2729,2729,3221228446,4247,
4247,1073744798,2729,2729,2729,2734,2734,2729,2729,2729,2729,2729,2729,2729,2729,2729,2729,2729,2729,2729,2729,2729,2729,2729,2729,2729,2729,2729,2729,2729,3221228446,4247,
4247,1073744798,2729,2729,2729,2729,2729,2729,2729,2729,2729,2729,2729,2729,2729,2729,2729,2729,2729,2729,2729,2729,2729,2729,2729,2729,2729,2729,2729,2729,3221228446,4247,
4247,1073744798,2729,2729,2729,2729,2729,2729,2729,2729,2729,2729,2729,2729,2729,2729,2729,2729,2729,2729,2729,2729,2729,2729,2729,2729,2729,2729,2729,2729,3221228446,4247,
4247,1073744798,2729,2729,2729,2729,2729,2729,2729,2729,2729,2729,2729,2729,2729,2729,2729,2729,2729,2729,2729,2729,2729,2729,2729,2729,2729,2729,2729,2729,3221228446,4247,
4247,1073744798,2729,2729,2729,2729,2729,2729,2729,2729,2729,2729,2729,2729,2729,2729,2729,2729,2729,2729,2729,2729,2729,2729,2729,2729,2729,2729,2729,2729,3221228446,4247,
4247,1073744798,2809,2729,2729,2729,2729,2729,2729,2729,2729,2729,2729,2729,2729,2729,2729,2729,2729,2729,2729,2729,2729,2732,2732,2732,2732,2732,2729,2729,3221228446,4247,
4247,1073744798,0,2729,2729,2734,2734,2729,2729,2729,2729,2729,2729,2729,2729,2729,2729,2729,2729,2729,2729,2729,2729,2732,2732,2732,2732,2732,2729,2729,3221228446,4247,
4247,1073744798,2729,2729,2729,2734,2734,2729,2729,2729,2729,2729,2729,2729,2729,2729,2729,2729,2729,2729,2729,2729,2729,2729,2729,2729,2729,2729,2729,2729,3221228446,4247,
4247,1073744798,2729,2729,2729,2734,2734,2729,2729,2729,2729,2729,2732,2732,2732,2732,2729,2729,2729,2729,2729,2729,2729,2732,2732,2732,2732,2732,2729,2729,3221228446,4247,
4247,1073744798,2729,2729,2729,2734,2734,2729,2729,2729,2732,2729,2732,2732,2732,2732,2729,2729,2729,2729,2729,2729,2729,2729,2729,2729,2729,2729,2729,2729,3221228446,4247,
4247,1073744798,2729,2729,2729,2734,2734,2729,2729,2729,2732,2729,2732,2732,2732,2732,2729,2729,2729,2729,2729,2729,2729,2729,2729,2729,2729,2729,2729,2729,3221228446,4247,
4247,1073744798,2729,2729,2729,2734,2734,2729,2729,2732,2729,2729,2732,2732,2732,2732,2729,2729,2729,2729,2729,2729,2729,2729,2729,2729,2729,2729,2729,7461,3221228446,4247,
4247,1073744798,2729,2729,2729,2734,2734,2729,2729,2732,2729,2729,2732,2732,2732,2732,2729,2729,2732,2729,2729,2729,2729,2729,2729,2732,2729,2729,2729,2729,3221228446,4247,
4247,1073744798,2729,2729,2729,2734,2734,2734,2734,2734,2734,2734,2734,2734,2734,2734,2734,2734,2734,2734,2734,2734,2734,2734,2734,2734,2734,2734,2729,2729,3221228446,4247,
4247,1073744798,2729,2729,2729,2734,2734,2734,2734,2734,2734,2734,2734,2734,2734,2734,2734,2734,2734,2734,2734,2734,2734,2734,2734,2734,2734,2734,2729,2729,3221228446,4247,
4247,1073744798,2729,2729,2729,2729,2729,2729,2729,2729,2729,2729,2729,2729,2729,2734,2734,2729,2729,2729,2729,2729,2729,2729,2729,2729,2729,2729,2729,2729,3221228446,4247,
4247,1073744798,2729,2729,2729,2729,2729,2729,2729,2729,2729,2729,2729,2729,2729,2734,2734,2729,2729,2729,2729,2729,2729,2729,2729,2729,2729,2729,2729,2729,3221228446,4247,
4247,1073744798,2729,2729,2729,2729,2729,2729,2729,2729,2729,2729,2729,2729,2729,2734,2734,2729,2729,2729,2729,2729,2729,2729,2729,2729,2729,2729,2729,2729,3221228446,4247,
4247,1073744798,2729,2729,2729,2729,2729,2729,2729,2729,2729,2729,2729,2729,2729,2734,2734,2729,2729,2729,2729,2729,2729,2729,2729,2729,2729,2729,2729,2729,3221228446,4247,
4247,1073744798,2734,2734,2734,2734,2734,2734,2734,2734,2734,2734,2734,2734,2729,2734,2734,2729,2734,2734,2734,2734,2734,2734,2734,2734,2734,2734,2734,2734,3221228446,4247,
4247,2974,2734,2734,2734,2734,2734,2734,2734,2734,2734,2734,2734,2734,2729,2734,2734,2729,2734,2734,2734,2734,2734,2734,2734,2734,2734,2734,2734,2734,3221228446,4247,
4247,2974,2734,2734,2734,2734,2734,2734,2734,2734,2734,2734,2734,2734,2734,2734,2734,2734,2734,2734,2734,2734,2734,2734,2734,2734,2734,2734,2734,2734,3221228446,4247,
4247,4247,1610615710,1610615710,1610615710,1610615710,1610615710,1610615710,1610615710,1610615710,1610615710,1610615710,1610615710,1610615710,1610615710,1610615710,1610615710,1610615710,1610615710,1610615710,1610615710,1610615710,1610615710,1610615710,1610615710,1610615710,1610615710,1610615710,1610615710,1610615710,4247,4247,
4247,4247,4247,4247,4247,4247,4247,4247,4247,4247,4247,4247,4247,4247,4247,4247,4247,4247,4247,4247,4247,4247,4247,4247,4247,4247,4247,4247,4247,4247,4247,4247,
4247,4247,4247,4247,4247,4247,4247,4247,4247,4247,4247,4247,4247,4247,4247,4247,4247,4247,4247,4247,4247,4247,4247,4247,4247,4247,4247,4247,4247,4247,4247,4247,
4247,4247,4247,4247,4247,4247,4247,4247,4247,4247,4247,4247,4247,4247,4247,4247,4247,4247,4247,4247,4247,4247,4247,4247,4247,4247,4247,4247,4247,4247,4247,4247
</data>
 </layer>
 <layer id="10" name="Tile Layer 6" width="32" height="42">
  <data encoding="csv">
0,0,2147486459,0,0,0,0,0,0,0,0,0,0,0,0,0,0,0,0,0,0,0,0,0,0,0,0,0,0,2811,0,0,
0,0,2147486459,0,0,0,0,0,0,0,0,0,0,0,0,0,0,0,0,0,0,0,0,2945,2945,2945,2945,0,0,2811,0,0,
0,0,2147486459,0,0,0,0,0,0,0,0,0,0,0,0,0,0,0,0,0,0,0,2147486457,0,0,0,0,2809,0,2811,0,0,
0,0,0,0,0,0,0,0,0,0,0,0,0,0,0,0,0,0,0,0,0,0,0,0,0,0,0,0,0,0,0,0,
0,0,0,0,0,0,0,0,0,0,0,0,0,0,0,0,0,0,0,0,0,0,0,0,0,0,0,0,0,0,0,0,
0,0,0,0,0,0,0,0,0,0,0,0,0,0,0,0,0,0,0,0,0,0,0,0,0,0,0,0,0,0,0,0,
0,0,0,0,0,0,0,0,0,0,0,0,0,0,0,0,0,0,0,0,0,0,2834,0,0,0,0,2834,0,0,0,0,
0,0,3221228283,0,0,1311,1312,1312,1312,1312,1312,1312,1312,1312,1312,1312,1312,1312,1312,1313,0,0,0,0,0,0,0,0,0,2811,0,0,
0,0,3221228283,0,0,1351,1352,1352,1352,1352,1352,1352,1352,1352,1352,1352,1352,1352,1352,1353,0,0,0,0,0,0,0,0,0,2811,0,0,
0,0,3221228283,0,0,1391,1392,1392,1392,1392,1392,1392,1392,1392,1392,1392,1392,1392,1392,1393,0,0,0,0,0,0,0,0,0,2811,0,0,
0,0,3221228283,0,0,1431,1432,1432,1432,1432,1432,1432,1432,1432,1432,1432,1432,1432,1432,1433,0,0,0,0,0,0,0,0,0,2811,0,0,
0,0,3221228283,0,0,1471,1472,1472,1472,1472,1472,1472,1472,1472,1472,1472,1472,1472,1472,1473,1474,0,0,0,0,0,0,0,0,2811,0,0,
0,0,3221228283,0,0,1511,1512,1512,1512,1512,1512,1512,1512,1512,1512,1512,1512,1512,1512,1513,1514,0,0,0,0,0,0,0,0,2811,0,0,
0,0,3221228283,0,0,1551,1552,626,626,626,626,626,626,626,626,626,626,626,626,1553,1554,0,0,0,0,0,0,0,0,2811,0,0,
0,0,3221228283,0,0,0,0,0,0,0,0,0,0,0,0,0,0,0,0,0,0,0,0,0,0,0,0,0,0,2811,0,0,
0,0,3221228283,0,0,0,0,0,0,0,0,0,0,0,0,0,0,0,0,0,0,0,0,0,0,0,0,0,0,2811,0,0,
0,0,3221228283,0,0,0,0,0,0,0,0,0,0,0,0,0,0,0,0,0,0,0,0,0,0,0,0,0,0,2811,0,0,
0,0,0,2147486457,0,0,0,0,2809,0,0,0,0,0,0,0,0,0,0,0,0,0,0,0,0,0,0,0,0,2811,0,0,
0,0,0,0,0,0,2818,2818,2818,2818,2818,2818,2818,2818,2818,2818,2818,2818,2818,2818,2818,2818,2818,2818,2818,2818,2818,2818,2818,2819,0,0,
0,0,0,0,0,0,2826,2826,2826,2826,2826,2826,2826,2826,2826,2826,2826,2826,2826,2826,2826,2826,2826,2826,2826,2826,2826,2826,2826,2827,0,0,
0,0,0,0,0,0,2826,2826,2826,2826,2826,2826,2826,2826,2826,2826,2826,2826,2826,2826,2826,2826,2826,2826,2826,2826,2826,2826,2826,2827,0,0,
0,0,0,2834,0,0,2834,2834,2834,2834,2834,2834,2834,2834,2834,2834,2834,2834,2834,2834,2834,2834,2834,2834,2834,2834,2834,2834,2834,2835,0,0,
0,0,0,0,0,0,0,0,0,0,0,0,0,0,0,0,0,0,0,0,0,0,0,0,0,0,0,0,0,2811,0,0,
0,0,0,0,0,0,0,0,0,0,0,0,0,0,0,0,0,0,0,0,0,0,0,0,0,0,0,0,0,2811,0,0,
0,0,0,0,0,0,0,0,0,0,0,0,0,0,0,0,0,0,0,0,0,0,0,0,0,0,0,0,0,2811,0,0,
0,0,0,0,0,0,0,0,0,0,0,0,0,0,0,0,0,0,0,0,0,0,0,0,0,0,0,0,0,2811,0,0,
0,0,0,0,0,0,0,0,0,0,0,0,0,0,0,0,0,0,0,0,0,0,0,0,0,0,0,0,0,2811,0,0,
0,0,0,0,0,0,0,0,0,0,0,0,0,0,0,0,0,0,0,0,0,0,0,0,0,0,0,0,0,2811,0,0,
0,0,0,0,0,0,0,0,0,0,0,0,0,0,0,0,0,0,0,0,0,0,0,0,0,0,0,0,0,2811,0,0,
0,0,0,0,0,0,0,0,0,0,0,0,0,0,0,0,0,0,0,0,0,0,0,0,0,0,0,0,0,2811,0,0,
0,0,0,0,0,0,0,0,0,0,0,0,0,0,0,0,0,0,0,0,0,0,0,0,0,0,0,0,0,0,0,0,
0,0,0,0,0,0,0,0,0,0,0,0,0,2147486457,0,0,0,0,2809,0,0,0,0,0,0,0,0,0,0,0,0,0,
0,0,0,0,0,0,0,0,0,0,0,0,0,0,0,0,0,0,0,0,0,0,0,0,0,0,0,0,0,0,0,0,
0,0,0,0,0,0,0,0,0,0,0,0,0,0,0,0,0,0,0,0,0,0,0,0,0,0,0,0,0,0,0,0,
0,0,0,0,0,0,0,0,0,0,0,0,0,0,0,0,0,0,0,0,0,0,0,0,0,0,0,0,0,0,0,0,
0,0,0,0,0,0,0,0,0,0,0,0,0,0,0,0,0,0,0,0,0,0,0,0,0,0,0,0,0,0,0,0,
0,0,0,0,0,0,0,0,0,0,0,0,0,0,0,0,0,0,0,0,0,0,0,0,0,0,0,0,0,0,0,0,
0,0,0,0,0,0,0,0,0,0,0,0,0,0,0,0,0,0,0,0,0,0,0,0,0,0,0,0,0,0,0,0,
0,0,0,0,0,0,0,0,0,0,0,0,0,0,0,0,0,0,0,0,0,0,0,0,0,0,0,0,0,0,0,0,
0,0,0,0,0,0,0,0,0,0,0,0,0,0,0,0,0,0,0,0,0,0,0,0,0,0,0,0,0,0,0,0,
0,0,0,0,0,0,0,0,0,0,0,0,0,0,0,0,0,0,0,0,0,0,0,0,0,0,0,0,0,0,0,0,
0,0,0,0,0,0,0,0,0,0,0,0,0,0,0,0,0,0,0,0,0,0,0,0,0,0,0,0,0,0,0,0
</data>
 </layer>
 <layer id="3" name="Tile Layer 2" width="32" height="42">
  <data encoding="csv">
0,4248,0,0,0,0,0,0,0,0,0,0,0,0,0,0,0,0,0,0,0,0,0,0,0,0,0,0,0,0,2147487896,0,
0,4248,0,0,0,0,0,0,0,0,0,0,0,0,0,0,0,0,0,0,0,0,0,0,0,0,0,0,0,0,2147487896,0,
0,4248,0,0,0,0,0,0,0,0,0,0,0,0,0,0,0,0,0,0,0,0,0,0,0,0,0,0,0,0,2147487896,0,
0,4248,2817,2818,2818,2818,2818,2818,2818,2818,2818,2818,2818,2818,2818,2818,2818,2818,2818,2818,2818,2818,2147486465,0,0,0,0,2817,2818,2147486465,2147487896,0,
0,4248,2825,2826,2826,2826,2826,2826,2826,2826,2826,2826,2826,2826,2826,2826,2826,2826,2826,2826,2826,2826,2147486473,0,0,0,0,2825,2826,2147486473,2147487896,0,
0,4248,2825,2826,2826,2826,2826,2826,2826,2826,2826,2826,2826,2826,2826,2826,2826,2826,2826,2826,2826,2826,2147486473,0,0,0,0,2825,2826,2147486473,2147487896,0,
0,4248,2833,2834,2834,2834,2834,2834,2834,2834,2834,2834,2834,2834,2834,2834,2834,2834,2834,2834,2834,2834,2147486481,0,0,0,0,2833,2834,2147486481,2147487896,0,
0,4248,0,0,0,0,0,0,0,0,0,0,0,0,0,0,0,0,0,0,0,0,0,0,0,0,0,0,0,0,2147487896,0,
0,4248,0,0,0,0,0,0,0,0,0,0,0,0,0,0,0,0,0,0,0,0,0,0,0,0,0,0,0,0,2147487896,0,
0,4248,0,0,0,0,0,0,0,0,0,0,0,0,0,0,0,0,0,0,0,0,0,0,0,0,0,0,0,0,2147487896,0,
0,4248,0,0,0,0,0,0,0,0,0,0,0,0,0,0,0,0,0,0,0,0,0,0,0,0,0,0,0,0,2147487896,0,
0,4248,0,0,0,3338,1314,3338,0,3338,1314,3338,0,3338,1314,3338,0,3338,1314,3338,0,0,0,0,0,0,0,0,0,0,2147487896,0,
0,4248,0,0,0,0,1354,0,3656,0,1354,0,3640,3653,1354,3653,3656,0,1354,0,0,0,3657,3658,3659,0,0,0,0,0,2147487896,0,
0,4248,0,0,0,3604,0,3586,3664,3606,0,3607,3648,3661,0,3661,3664,0,0,3783,0,0,3665,3666,3667,0,0,0,0,0,2147487896,0,
0,4248,0,0,0,0,0,0,0,0,0,0,0,0,0,0,0,0,0,0,0,0,3673,3674,3675,0,0,0,0,0,2147487896,0,
0,4248,0,0,0,0,0,0,0,0,0,0,0,0,0,0,0,0,0,0,0,0,0,0,0,0,0,0,0,0,2147487896,0,
0,4248,0,0,0,0,0,0,0,0,0,0,0,0,0,0,0,0,0,0,0,0,0,0,0,0,0,0,0,0,2147487896,0,
0,4248,2809,0,0,0,0,0,0,0,0,0,0,0,0,0,0,0,0,0,0,0,0,0,0,0,0,0,0,0,2147487896,0,
0,4248,2817,2147486465,0,0,2817,0,2817,0,0,0,0,0,0,0,0,0,0,0,0,0,0,0,0,0,0,0,0,0,2147487896,0,
0,4248,2825,2147486473,0,0,2825,0,2825,0,0,0,0,0,0,0,0,0,0,0,0,0,0,0,0,0,0,0,0,0,2147487896,0,
0,4248,2825,2147486473,0,0,2825,0,2825,0,0,0,0,0,0,0,0,0,0,0,0,0,0,0,0,0,0,0,0,0,2147487896,0,
0,4248,2833,2147486481,0,0,2833,0,2833,0,0,0,0,0,0,0,0,0,0,0,0,0,0,0,0,0,0,0,0,0,2147487896,0,
0,4248,2809,0,0,0,0,0,0,0,0,0,0,0,0,0,0,0,0,0,0,0,0,1311,1312,1312,1312,1313,0,0,2147487896,0,
0,4248,2809,0,0,0,0,1295,1296,1297,1298,1299,0,2959,2960,0,1295,1296,1297,1298,1299,0,0,1351,1352,1352,1352,1353,0,0,2147487896,0,
0,4248,2809,0,0,0,0,1335,1336,1337,1338,1339,0,2967,2968,0,1335,1336,1337,1338,1339,0,0,1391,1392,1392,1392,1393,0,0,2147487896,0,
0,4248,2809,0,0,0,0,1375,1376,1377,1378,1379,0,0,0,0,1375,1376,1377,1378,1379,0,0,1431,1432,1432,1432,1433,0,0,2147487896,0,
0,4248,2809,0,0,0,0,1415,1416,1417,1418,1419,0,0,0,0,1415,1416,1417,1418,1419,0,0,1471,1472,1472,1472,1473,1474,0,2147487896,0,
0,4248,2809,0,0,0,0,1455,1456,1457,1458,1459,0,0,0,0,1455,1456,1457,1458,1459,0,0,1511,1512,1512,1512,1513,1514,0,2147487896,0,
0,4248,2809,0,0,0,0,0,0,0,0,0,0,0,0,0,0,0,0,0,0,0,0,1551,1552,1552,1552,1553,1554,0,2147487896,0,
0,4248,2809,0,0,0,0,0,0,0,0,0,0,0,0,0,0,0,0,0,0,0,0,0,0,0,0,0,0,2811,2147487896,0,
0,4248,2809,0,0,0,0,0,0,0,0,0,0,0,0,0,0,0,0,0,0,0,0,0,0,0,0,0,0,2811,2147487896,0,
0,4248,2809,0,0,0,0,0,0,0,0,0,0,0,0,0,0,0,0,0,0,0,0,0,0,0,0,0,0,2811,2147487896,0,
0,4248,2817,2818,2818,2818,2818,2818,2818,2818,2818,2818,2818,2819,1856,0,0,2147485504,2817,2818,2818,2818,2818,2818,2818,2818,2818,2818,2818,2819,2147487896,0,
0,4248,2825,2826,2826,2826,2826,2826,2826,2826,2826,2826,2826,2827,1856,0,0,2147485504,2825,2826,2826,2826,2826,2826,2826,2826,2826,2826,2826,2827,2147487896,0,
0,4248,2825,2826,2826,2826,2826,2826,2826,2826,2826,2826,2826,2827,1856,0,0,2147485504,2825,2826,2826,2826,2826,2826,2826,2826,2826,2826,2826,2827,2147487896,0,
0,4248,2833,0,2834,2834,2834,2834,2834,2834,2834,2834,2834,2835,1856,0,0,2147485504,2833,2834,2834,2834,2834,2834,2834,2834,2834,2834,2834,2835,2147487896,0,
0,4248,1551,1894,1894,1894,1894,1894,1894,1894,1894,1894,1894,2147485199,2734,0,0,2734,1551,1894,1894,1894,1894,1894,1894,1894,1894,1894,1894,2147485199,4246,0,
0,4248,2734,2734,2734,2734,2734,2734,2734,2734,2734,2734,2734,2734,2734,2734,2734,2734,2734,0,0,0,0,0,0,0,0,0,0,0,4246,0,
0,4437,4183,4183,4183,4183,4183,4183,4183,4183,4183,4183,4183,4183,4183,4183,4183,4183,4183,4183,4183,4183,4183,4183,4183,4183,4183,4183,4183,4183,4438,0,
0,0,0,0,0,0,0,0,0,0,0,0,0,0,0,0,0,0,0,0,0,0,0,0,0,213,214,106,216,0,0,0,
0,0,0,0,0,0,0,0,0,0,0,0,0,0,0,0,0,0,0,0,0,0,0,0,0,0,270,271,272,0,0,0,
0,0,0,0,0,0,0,0,0,0,0,0,0,0,0,0,0,0,0,0,0,0,0,0,0,0,0,0,0,0,0,0
</data>
 </layer>
 <layer id="5" name="Tile Layer 3" width="32" height="42">
  <data encoding="csv">
0,0,0,0,0,0,0,0,0,0,0,0,0,0,0,0,0,0,0,0,0,0,0,0,0,0,0,0,0,0,0,0,
0,0,0,0,0,0,0,0,0,0,0,0,0,0,0,0,0,0,0,0,0,0,0,0,0,0,0,0,0,0,0,0,
0,0,0,0,0,0,0,0,0,0,0,0,0,0,0,0,0,0,0,0,0,0,0,0,0,0,0,0,0,0,0,0,
0,0,0,0,0,0,0,0,0,0,0,0,0,0,0,0,0,0,0,0,0,0,0,0,0,0,0,0,0,0,0,0,
0,0,0,0,0,0,0,0,0,0,0,0,0,0,0,0,0,0,0,0,0,0,0,0,0,0,0,0,0,0,0,0,
0,0,0,0,0,0,0,0,0,0,0,0,0,0,0,0,0,0,0,0,0,0,0,0,0,0,0,0,0,0,0,0,
0,0,0,0,0,0,0,0,0,0,0,0,0,0,0,0,0,0,0,0,0,0,0,0,0,0,0,0,0,0,0,0,
0,0,0,0,0,0,0,0,0,0,0,0,0,0,0,0,0,0,0,0,0,0,0,0,0,0,0,0,0,0,0,0,
0,0,0,0,0,0,0,0,0,0,0,0,0,0,0,0,0,0,0,0,0,0,0,0,0,0,0,0,0,0,0,0,
0,0,0,0,0,0,0,0,0,0,0,0,0,0,0,0,0,0,0,0,0,0,0,0,0,0,0,0,0,0,0,0,
0,0,0,0,0,0,0,0,0,0,0,0,0,0,0,0,0,0,0,0,0,0,0,0,0,0,0,0,0,0,0,0,
0,0,0,0,0,0,0,0,0,0,0,0,0,0,0,0,0,0,0,0,0,0,0,0,0,0,0,0,0,0,0,0,
0,0,0,0,0,0,0,0,0,0,0,0,0,0,0,0,0,0,0,0,0,0,0,0,0,0,0,0,0,0,0,0,
0,0,0,0,0,0,0,0,0,0,0,0,0,0,0,0,0,0,0,0,0,0,0,0,0,0,0,0,0,0,0,0,
0,0,0,0,0,0,0,0,0,0,0,0,0,0,0,0,0,0,0,0,0,0,0,0,0,0,0,0,0,0,0,0,
0,0,0,0,0,0,0,0,0,0,0,0,0,0,0,0,0,0,0,0,0,0,0,0,0,0,0,0,0,0,0,0,
0,0,0,0,0,0,0,0,0,0,0,0,0,0,0,0,0,0,0,0,0,0,0,0,0,0,0,0,0,0,0,0,
0,0,2774,0,0,0,0,0,0,0,0,0,0,0,0,0,0,0,0,0,0,0,0,0,0,0,0,0,0,0,0,0,
0,0,0,0,0,0,0,0,0,0,0,0,0,0,0,0,0,0,0,0,0,0,0,0,0,0,0,0,0,0,0,0,
0,0,0,0,0,0,0,0,0,0,0,0,0,0,0,0,0,0,0,0,0,0,0,0,0,0,0,0,0,0,0,0,
0,0,0,0,0,0,0,0,0,0,0,0,0,0,0,0,0,0,0,0,0,0,0,0,0,0,0,0,0,0,0,0,
0,0,0,0,0,0,0,0,0,0,0,0,0,0,0,0,0,0,0,0,0,0,0,0,0,0,0,0,0,0,0,0,
0,0,0,0,0,0,0,0,0,0,0,0,0,0,0,0,0,0,0,0,0,0,0,0,0,0,0,0,0,0,0,0,
460,0,0,0,0,0,0,0,0,0,0,0,0,0,0,0,404,0,0,0,0,0,0,0,0,0,3063,0,0,0,0,0,
0,0,0,0,0,0,0,0,0,0,0,0,0,0,0,0,0,0,0,0,0,0,0,0,0,0,0,0,0,0,460,0,
0,0,0,0,0,0,0,0,0,0,0,0,0,1772,0,0,0,0,0,0,0,0,0,3557,0,0,0,3557,0,0,0,0,
0,0,0,0,0,0,0,0,0,998,0,0,0,0,1732,0,3640,0,999,0,1361,0,0,3565,3338,1394,3338,3565,0,0,0,0,
0,460,0,0,0,0,0,1497,2957,0,0,2956,1035,0,0,0,3648,1364,0,0,1401,0,0,0,3637,1434,3637,0,0,0,0,0,
0,0,0,0,0,0,0,0,0,0,0,0,0,0,0,0,0,0,0,0,0,0,0,0,3645,0,3645,0,0,0,457,0,
0,0,0,0,0,0,0,0,0,0,0,0,0,0,0,0,0,0,0,0,0,0,0,0,0,0,0,0,0,0,0,0,
0,0,0,0,0,0,0,0,0,0,0,0,0,0,0,0,0,0,0,0,0,0,0,0,0,0,0,0,0,0,0,458,
0,0,0,0,0,0,0,0,0,0,0,0,0,0,0,0,0,0,0,0,0,0,0,0,0,0,0,0,0,0,459,0,
457,458,0,0,0,0,0,0,0,0,0,0,0,0,0,0,0,0,0,0,0,0,0,0,0,0,0,0,0,0,457,458,
0,0,0,0,0,0,0,0,0,0,0,0,0,0,0,0,0,0,0,0,0,0,0,0,0,0,0,0,0,0,0,0,
0,0,0,0,0,0,0,0,0,0,0,0,0,0,0,0,0,0,0,0,0,0,0,0,0,0,0,0,0,0,0,0,
0,0,2147485637,1776,1989,1989,1989,1989,1989,1989,1989,1989,1989,1989,0,0,0,0,1610614806,1989,1989,1989,1989,1989,1989,1989,1989,1989,1989,1989,0,0,
0,0,0,0,0,0,0,0,0,0,0,0,0,0,0,0,0,0,0,0,0,0,0,0,0,0,0,0,0,0,0,0,
0,0,0,0,0,0,0,0,0,0,0,0,0,0,0,0,0,0,0,0,0,0,0,0,0,0,0,0,0,0,0,0,
0,0,0,0,0,0,0,0,0,0,0,0,0,0,0,0,0,0,0,0,0,0,0,0,0,0,0,103,0,0,0,0,
0,0,0,0,0,0,0,0,0,0,0,0,0,0,0,0,0,0,0,0,0,0,0,0,0,0,0,159,0,0,0,0,
0,0,0,0,0,0,0,0,0,0,0,0,0,0,0,0,0,0,0,0,0,0,0,0,0,0,0,0,0,0,0,0,
0,0,0,0,0,0,0,0,0,0,0,0,0,0,0,0,0,0,0,0,0,0,0,0,0,0,0,0,0,0,0,0
</data>
 </layer>
 <layer id="7" name="Tile Layer 4" width="32" height="42">
  <data encoding="csv">
0,0,0,0,0,0,0,0,0,0,0,0,0,0,0,0,0,0,0,0,0,0,0,0,0,0,0,0,0,0,0,0,
0,0,0,0,0,0,0,0,0,0,0,0,0,0,0,0,0,0,0,0,0,0,0,3057,0,0,3059,0,0,0,0,0,
0,0,0,0,0,0,0,0,0,0,0,0,0,0,0,0,0,0,0,0,0,0,0,3065,3066,3066,3067,0,0,0,0,0,
0,0,0,0,0,0,0,0,0,0,0,0,0,0,0,0,0,0,0,0,0,0,0,3065,3074,3074,3067,0,0,0,0,0,
0,0,0,0,0,0,0,0,0,0,0,0,0,0,0,0,0,0,0,0,0,0,0,3065,3074,3066,3067,0,0,0,0,0,
0,0,0,0,0,0,0,0,0,0,0,0,0,0,0,0,0,0,0,0,0,0,0,3065,3074,3074,3067,0,0,0,0,0,
0,0,0,0,0,0,0,0,0,0,0,0,0,0,0,0,0,0,0,0,0,0,0,3073,3074,3074,3075,0,0,0,0,0,
0,0,0,0,0,0,0,0,0,0,0,0,0,0,0,0,0,0,0,0,0,0,0,0,0,0,0,0,0,0,0,0,
0,0,0,0,0,0,0,0,0,0,0,0,0,0,0,0,0,0,0,0,0,0,0,0,0,0,0,0,0,0,0,0,
0,0,0,0,0,0,0,0,0,0,0,0,0,0,0,0,0,0,0,0,0,0,0,0,0,0,0,0,0,0,0,0,
0,0,0,0,0,0,0,0,0,0,0,0,0,0,0,0,0,0,0,0,0,0,0,0,0,0,0,0,0,0,0,0,
0,0,0,0,0,0,0,0,0,0,0,0,0,0,0,0,0,0,0,0,0,0,0,0,0,0,0,0,0,0,0,0,
0,0,0,0,0,0,0,0,0,0,0,0,0,0,0,0,0,0,0,0,0,0,0,0,0,0,0,0,0,0,0,0,
0,0,0,0,0,0,0,0,0,0,0,0,0,0,0,0,0,0,0,0,0,0,0,0,0,0,0,0,0,0,0,0,
0,0,0,0,0,0,0,0,0,0,0,0,0,0,0,0,0,0,0,0,0,0,0,0,0,0,0,0,0,0,0,0,
0,0,0,0,0,0,0,0,0,0,0,0,0,0,0,0,0,0,0,0,0,0,0,0,0,0,0,0,0,0,0,0,
0,0,0,0,3057,0,0,3059,0,0,0,0,0,0,0,0,0,0,0,0,0,0,0,0,0,0,0,0,0,0,0,0,
0,0,0,0,3065,3066,3066,3067,0,0,0,0,0,0,0,0,0,0,0,0,0,0,0,0,0,0,0,0,0,0,0,0,
0,0,0,0,3065,3074,3074,3067,0,0,0,0,0,0,0,0,0,0,0,0,0,0,0,0,0,0,0,0,0,0,0,0,
0,0,0,0,3065,3074,3066,3067,0,0,0,0,0,0,0,0,0,0,0,0,0,0,0,0,0,0,0,0,0,0,0,0,
0,0,0,0,3065,3074,3074,3067,0,0,0,0,0,0,0,0,0,0,0,0,0,0,0,0,0,0,0,0,0,0,0,0,
0,0,0,0,3073,3074,3074,3075,0,0,0,0,0,0,0,0,0,0,0,0,0,0,0,0,0,0,0,0,0,0,0,0,
0,0,0,0,0,0,0,0,0,0,0,0,0,0,0,0,0,0,0,0,0,0,0,0,0,0,0,0,0,0,0,0,
0,0,0,631,0,0,0,0,0,0,0,0,0,0,0,0,0,0,0,0,0,0,0,0,0,0,0,0,0,0,0,0,
0,0,0,0,0,0,0,0,0,0,0,0,0,0,0,0,0,0,0,0,0,0,0,0,0,0,0,0,0,0,0,0,
0,0,0,0,0,0,0,0,0,0,0,0,0,0,0,0,0,0,0,0,0,0,0,0,0,0,0,0,0,0,0,0,
0,0,0,0,0,0,0,0,0,0,0,0,0,631,0,0,0,0,0,0,0,0,0,0,0,0,0,0,0,0,0,0,
0,0,0,0,0,0,0,0,0,0,0,0,0,0,0,0,0,0,0,0,0,0,0,0,0,0,0,0,0,0,0,0,
0,0,0,0,0,0,0,0,0,0,0,0,0,0,0,0,0,0,0,0,0,0,0,0,0,0,0,0,0,0,0,0,
0,0,0,0,0,0,0,0,0,0,0,0,0,0,0,0,0,0,0,0,0,0,0,0,0,0,0,0,687,0,0,0,
0,0,0,0,0,0,0,0,0,0,0,0,0,0,3057,0,0,3059,0,0,0,0,0,0,0,0,0,631,0,0,0,0,
0,0,0,0,0,0,0,0,0,0,0,0,0,0,3065,3066,3066,3067,0,0,0,0,0,0,0,0,0,0,687,0,0,0,
0,0,0,0,0,0,0,0,0,0,0,0,0,0,3065,3074,3074,3067,0,0,0,0,0,0,0,0,0,0,0,0,0,0,
0,0,0,0,0,0,0,0,0,0,0,0,0,0,3065,3074,3066,3067,0,0,0,0,0,0,0,0,0,0,0,0,0,0,
0,0,0,0,0,0,0,0,0,0,0,0,0,0,3065,3074,3074,3067,0,0,0,0,0,0,0,0,1073745453,1073745454,0,0,0,0,
0,0,0,0,0,0,0,0,0,0,0,0,0,0,3073,3074,3074,3075,3221227542,0,0,0,0,0,0,0,1073745445,1073745446,0,0,0,0,
0,0,0,0,0,0,0,0,0,0,0,0,0,0,0,0,0,0,0,0,0,0,0,0,0,0,1073745437,1073745438,0,0,0,0,
0,0,0,0,0,0,0,0,0,0,0,0,0,0,0,0,0,0,0,0,0,0,0,0,0,0,0,101,0,0,0,0,
0,0,0,0,0,0,0,0,0,0,0,0,0,0,0,0,0,0,0,0,0,0,0,0,0,0,0,157,104,0,0,0,
0,0,0,0,0,0,0,0,0,0,0,0,0,0,0,0,0,0,0,0,0,0,0,0,0,0,0,0,160,0,0,0,
0,0,0,0,0,0,0,0,0,0,0,0,0,0,0,0,0,0,0,0,0,0,0,0,0,0,0,0,0,0,0,0,
0,0,0,0,0,0,0,0,0,0,0,0,0,0,0,0,0,0,0,0,0,0,0,0,0,0,0,0,0,0,0,0
</data>
 </layer>
 <layer id="8" name="Tile Layer 5" width="32" height="42">
  <data encoding="csv">
0,0,0,0,0,0,0,0,0,0,0,0,0,0,0,0,0,0,0,0,0,0,0,0,0,0,0,0,0,0,0,0,
0,0,0,0,0,0,0,0,0,0,0,0,0,0,0,0,0,0,0,0,0,0,0,0,0,0,0,0,0,0,0,0,
0,0,0,0,0,0,0,0,0,0,0,0,0,0,0,0,0,0,0,0,0,0,0,0,0,0,0,0,0,0,0,0,
0,0,0,0,0,0,0,0,0,0,0,0,0,0,0,0,0,0,0,0,0,0,0,0,0,0,0,0,0,0,0,0,
0,0,0,0,0,0,0,0,0,0,0,0,0,0,0,0,0,0,0,0,0,0,0,0,0,0,0,0,0,0,0,0,
0,0,0,0,0,0,0,0,0,0,0,0,0,0,0,0,0,0,0,0,0,0,0,0,0,0,0,0,0,0,0,0,
0,0,0,0,0,0,0,0,0,0,0,0,0,0,0,0,0,0,0,0,0,0,0,0,0,0,0,0,0,0,0,0,
0,0,0,0,0,0,0,0,0,0,0,0,0,0,0,0,0,0,0,0,0,0,0,0,0,0,0,0,0,0,0,0,
0,0,0,0,0,0,0,0,0,0,0,0,0,0,0,0,0,0,0,0,0,0,0,0,0,0,0,0,0,0,0,0,
0,0,0,0,0,0,0,0,0,0,0,0,0,0,0,0,0,0,0,0,0,0,0,0,0,0,0,0,0,0,0,0,
0,0,0,0,0,0,0,0,0,0,0,0,0,0,0,0,0,0,0,0,0,0,0,0,0,0,0,0,0,0,0,0,
0,0,0,0,0,0,0,0,0,0,0,0,0,0,0,0,0,0,0,0,0,0,0,0,0,0,0,0,0,0,0,0,
0,0,0,0,0,0,0,0,0,0,0,0,0,0,0,0,0,0,0,0,0,0,0,0,0,0,0,0,0,0,0,0,
0,0,0,0,0,0,0,0,0,0,0,0,0,0,0,0,0,0,0,0,0,0,0,0,0,0,0,0,0,0,0,0,
0,0,0,0,0,0,0,0,0,0,0,0,0,0,0,0,0,0,0,0,0,0,0,0,0,0,0,0,0,0,0,0,
0,0,0,0,0,0,0,0,0,0,0,0,0,0,0,0,0,0,0,0,0,0,0,0,0,0,0,0,0,0,0,0,
0,0,0,0,0,0,0,0,0,0,0,0,0,0,0,0,0,0,0,0,0,0,0,0,0,0,0,0,0,0,0,0,
0,0,0,0,0,0,0,0,0,0,0,0,0,0,0,0,0,0,0,0,0,0,0,0,0,0,0,0,0,0,0,0,
0,0,0,0,0,0,0,0,0,0,0,0,0,0,0,0,0,0,0,0,0,0,0,0,0,0,0,0,0,0,0,0,
0,0,0,0,0,0,0,0,0,0,0,0,0,0,0,0,0,0,0,0,0,0,0,0,0,0,0,0,0,0,0,0,
0,0,0,0,0,0,0,0,0,0,0,0,0,0,0,0,0,0,0,0,0,0,0,0,0,0,0,0,0,0,0,0,
0,0,0,0,0,0,0,0,0,0,0,0,0,0,0,0,0,0,0,0,0,0,0,0,0,0,0,0,0,0,0,0,
0,0,0,0,0,0,0,0,0,0,0,0,0,0,0,0,0,0,0,0,0,0,0,0,0,0,0,0,0,0,0,0,
0,0,0,0,0,0,0,0,0,0,0,0,0,0,0,0,0,0,0,0,0,0,0,0,0,0,0,0,0,0,0,0,
0,0,0,0,0,0,0,0,0,0,0,0,0,0,0,0,0,0,0,0,0,0,0,0,0,0,0,0,0,0,0,0,
0,0,0,0,0,0,0,0,0,0,0,0,0,0,0,0,0,0,0,0,0,0,0,0,0,0,0,0,0,0,0,0,
0,0,0,0,0,0,0,0,0,0,0,0,0,0,0,0,0,0,0,0,0,0,0,0,0,0,0,0,0,0,0,0,
0,0,0,0,0,0,0,0,0,0,0,0,0,0,0,0,0,0,0,0,0,0,0,0,0,0,0,0,0,0,0,0,
0,0,0,0,0,0,0,0,0,0,0,0,0,0,0,0,0,0,0,0,0,0,0,0,0,0,0,0,0,0,0,0,
0,0,0,0,0,0,0,0,0,0,0,0,0,0,0,0,0,0,0,0,0,0,0,0,0,0,0,0,0,0,0,0,
0,0,0,0,0,0,0,0,0,0,0,0,0,0,1073742509,0,0,0,0,0,0,0,0,0,0,0,0,0,0,0,0,0,
0,0,0,0,0,0,0,0,0,0,0,0,0,0,681,0,0,0,0,0,0,0,0,0,0,0,0,0,0,0,0,0,
0,0,0,0,0,0,0,0,0,0,0,0,0,0,681,0,0,0,0,0,0,0,0,0,0,0,0,0,0,0,0,0,
0,0,0,0,0,0,0,0,0,0,0,0,0,0,681,0,0,0,0,0,0,0,0,0,0,0,0,0,0,0,0,0,
0,0,0,0,0,0,0,0,0,0,0,0,0,0,681,0,0,0,0,0,0,0,0,0,0,0,0,0,0,0,0,0,
0,0,0,0,0,0,0,0,0,0,0,0,0,0,681,0,0,0,0,0,0,0,0,0,0,0,0,0,3601,0,0,0,
0,0,0,0,0,0,0,0,0,0,0,0,0,0,0,0,0,0,0,0,0,0,0,0,0,0,3593,3604,0,0,0,0,
0,0,0,0,0,0,0,0,0,0,0,0,0,0,0,0,0,0,0,0,0,0,0,0,0,0,0,0,0,3606,0,0,
0,0,0,0,0,0,0,0,0,0,0,0,0,0,0,0,0,0,0,0,0,0,0,0,0,0,0,0,0,0,0,0,
0,0,0,0,0,0,0,0,0,0,0,0,0,0,0,0,0,0,0,0,0,0,0,0,0,0,0,0,0,0,0,0,
0,0,0,0,0,0,0,0,0,0,0,0,0,0,0,0,0,0,0,0,0,0,0,0,0,0,0,0,0,0,0,0,
0,0,0,0,0,0,0,0,0,0,0,0,0,0,0,0,0,0,0,0,0,0,0,0,0,0,0,0,0,0,0,0
</data>
 </layer>
</map>
