<?xml version="1.0" encoding="UTF-8"?>
<map version="1.10" tiledversion="1.11.0" orientation="orthogonal" renderorder="right-down" width="15" height="15" tilewidth="32" tileheight="32" infinite="0" nextlayerid="6" nextobjectid="44">
 <tileset firstgid="1" source="[Base]BaseChip_pipo.tsx"/>
 <tileset firstgid="1065" source="../../spritesheets/slates.tsx"/>
 <tileset firstgid="2353" source="../../spritesheets/Overworld.tsx"/>
 <layer id="1" name="Tile Layer 1" width="15" height="15">
  <data encoding="csv">
527,365,362,362,362,362,362,362,362,362,362,362,362,363,527,
1610613090,373,370,370,370,370,370,370,370,370,370,370,370,371,2684354914,
1610613090,381,378,378,378,378,378,378,378,378,378,378,378,379,2684354914,
1610613090,291,291,291,291,291,291,291,291,291,291,291,291,291,2684354914,
1610613090,291,291,291,291,291,291,291,291,291,291,291,291,291,2684354914,
1610613090,291,291,291,291,291,291,291,291,291,291,291,291,291,2684354914,
1610613090,291,291,291,291,291,291,291,291,291,291,291,291,291,2684354914,
1610613090,291,291,291,291,291,291,291,291,291,291,291,291,291,2684354914,
1610613090,291,291,291,291,291,291,291,291,291,291,291,291,291,2684354914,
1610613090,291,291,291,291,291,291,291,291,291,291,291,291,291,2684354914,
1610613090,291,291,291,291,291,291,291,291,291,291,291,291,291,2684354914,
1610613090,291,291,291,291,291,291,291,291,291,291,291,291,291,2684354914,
1610613090,291,291,291,291,291,291,291,291,291,291,291,291,291,2684354914,
1610613090,291,291,291,291,291,291,291,291,291,291,291,291,291,2684354914,
527,3221225826,3221225826,3221225826,291,291,3221225826,3221225826,3221225826,3221225826,3221225826,3221225826,3221225826,3221225826,527
</data>
 </layer>
 <layer id="2" name="Tile Layer 2" width="15" height="15">
  <data encoding="csv">
0,0,0,0,0,0,0,0,0,0,0,0,0,0,0,
0,0,0,0,0,0,0,0,0,0,0,0,0,0,0,
0,0,0,0,0,0,0,0,0,0,0,0,0,0,0,
0,1745,0,0,0,0,0,0,0,0,0,0,0,0,0,
0,1745,0,812,0,0,0,0,0,0,0,0,0,0,0,
0,1745,0,820,0,0,709,0,709,0,709,0,709,0,0,
0,1745,0,0,0,0,0,0,0,0,0,0,0,0,0,
0,1745,0,0,0,0,709,0,709,0,709,0,709,0,0,
0,1745,0,0,0,0,0,0,0,0,0,0,0,0,0,
0,1745,885,886,0,0,709,0,709,0,709,0,709,0,0,
0,1745,893,894,0,0,0,0,0,0,0,0,0,0,0,
0,1745,901,902,0,0,709,0,709,0,709,0,709,0,0,
0,1745,0,0,0,0,0,0,0,0,0,0,0,0,0,
0,1745,0,0,0,0,0,0,0,0,0,0,0,0,0,
0,0,0,0,245,246,0,0,0,0,0,0,0,0,0
</data>
 </layer>
 <layer id="3" name="Tile Layer 3" width="15" height="15">
  <data encoding="csv">
0,0,0,0,0,0,0,0,0,0,0,0,0,0,0,
0,0,0,625,626,627,628,0,0,0,0,0,0,0,0,
0,296,0,633,634,635,636,0,0,0,0,0,0,0,0,
0,304,2684356305,2684356305,2684356305,2684356305,2684356305,2684356305,2684356305,2684356305,2684356305,2684356305,2684356305,2684356305,0,
0,0,0,0,0,0,0,0,0,0,0,0,0,0,0,
0,0,0,0,0,0,986,0,988,0,953,0,0,0,0,
0,0,0,0,0,0,0,0,0,0,0,0,0,0,0,
0,0,0,0,0,0,981,0,973,0,984,0,0,0,0,
0,0,0,0,0,0,0,0,0,0,0,0,0,0,0,
0,0,0,0,0,0,977,0,993,0,987,0,0,0,0,
0,0,0,0,0,0,0,0,0,0,0,0,0,0,0,
0,0,0,0,0,0,0,0,0,0,0,0,0,0,0,
0,0,0,0,0,0,0,0,0,0,0,0,0,0,0,
0,0,0,0,0,0,0,0,0,0,0,0,0,0,0,
0,0,0,0,0,0,0,0,0,0,0,0,0,0,0
</data>
 </layer>
 <objectgroup id="5" name="Object Layer 1">
  <object id="1" name="Start Position" type="start" x="160.591" y="419.549">
   <point/>
  </object>
  <object id="6" name="teleport1" x="128.625" y="464.083" width="63.4167" height="15.1667">
   <properties>
    <property name="destination" value="map"/>
    <property name="x" type="int" value="295"/>
    <property name="y" type="int" value="920"/>
   </properties>
  </object>
  <object id="7" name="teleport2" x="31.9583" y="95.75" width="32.0834" height="15.8333">
   <properties>
    <property name="destination" value="cellar-2"/>
   </properties>
  </object>
  <object id="8" name="collision-0006" x="22.1667" y="448.667" width="110" height="17">
   <properties>
    <property name="collision" type="bool" value="true"/>
   </properties>
  </object>
  <object id="9" name="collision-0002" x="185.667" y="448.333" width="262" height="17">
   <properties>
    <property name="collision" type="bool" value="true"/>
   </properties>
  </object>
  <object id="10" name="collision-0004" x="30.5" y="77" width="417.333" height="17">
   <properties>
    <property name="collision" type="bool" value="true"/>
   </properties>
  </object>
  <object id="11" name="collision-0005" x="22.5" y="77" width="9" height="370.667">
   <properties>
    <property name="collision" type="bool" value="true"/>
   </properties>
  </object>
  <object id="12" name="collision-0003" x="448.833" y="77.5" width="9" height="388">
   <properties>
    <property name="collision" type="bool" value="true"/>
   </properties>
  </object>
  <object id="13" name="collision-0006" x="193" y="160.75" width="29.75" height="24.75">
   <properties>
    <property name="collision" type="bool" value="true"/>
   </properties>
  </object>
  <object id="15" name="collision-0007" x="193" y="224.25" width="31" height="25.25">
   <properties>
    <property name="collision" type="bool" value="true"/>
   </properties>
  </object>
  <object id="17" name="market_01" x="189.318" y="220.932" width="36.8864" height="38.1818">
   <properties>
    <property name="component" value="market"/>
    <property name="item" value="cheese"/>
    <property name="max_x" type="int" value="256"/>
    <property name="max_y" type="int" value="4256"/>
    <property name="spritesheet" value="base_pipo"/>
    <property name="x" type="int" value="1128"/>
    <property name="y" type="int" value="3904"/>
   </properties>
  </object>
  <object id="18" name="market_02" x="253.75" y="220.875" width="36.3485" height="38.6364">
   <properties>
    <property name="component" value="market"/>
    <property name="item" value="ale"/>
    <property name="max_x" type="int" value="256"/>
    <property name="max_y" type="int" value="4256"/>
    <property name="spritesheet" value="base_pipo"/>
    <property name="x" type="int" value="128"/>
    <property name="y" type="int" value="3872"/>
   </properties>
  </object>
  <object id="19" name="market_03" x="317.315" y="221.091" width="37.3901" height="38.5114">
   <properties>
    <property name="component" value="market"/>
    <property name="item" value="ham"/>
    <property name="max_x" type="int" value="224"/>
    <property name="max_y" type="int" value="3904"/>
    <property name="spritesheet" value="base_pipo"/>
    <property name="x" type="int" value="32"/>
    <property name="y" type="int" value="3936"/>
   </properties>
  </object>
  <object id="20" name="market_04" x="189.502" y="156.795" width="37" height="39.5">
   <properties>
    <property name="component" value="market"/>
    <property name="item" value="potion"/>
    <property name="max_x" type="int" value="256"/>
    <property name="max_y" type="int" value="4256"/>
    <property name="spritesheet" value="base_pipo"/>
    <property name="x" type="int" value="32"/>
    <property name="y" type="int" value="3936"/>
   </properties>
  </object>
  <object id="21" name="market_05" x="252.657" y="156.613" width="38.144" height="40">
   <properties>
    <property name="component" value="market"/>
    <property name="item" value="pearl"/>
    <property name="max_x" type="int" value="256"/>
    <property name="max_y" type="int" value="4256"/>
    <property name="spritesheet" value="base_pipo"/>
    <property name="x" type="int" value="96"/>
    <property name="y" type="int" value="3936"/>
   </properties>
  </object>
  <object id="22" name="market_06" x="316.968" y="156.704" width="38.2651" height="40.4546">
   <properties>
    <property name="component" value="market"/>
    <property name="item" value="book"/>
    <property name="max_x" type="int" value="256"/>
    <property name="max_y" type="int" value="4256"/>
    <property name="spritesheet" value="base_pipo"/>
    <property name="x" type="int" value="0"/>
    <property name="y" type="int" value="3808"/>
   </properties>
  </object>
  <object id="23" name="collision-0008" x="192.833" y="288.375" width="31" height="25.25">
   <properties>
    <property name="collision" type="bool" value="true"/>
   </properties>
  </object>
  <object id="24" name="collision-0009" x="192.5" y="352.375" width="31" height="25.25">
   <properties>
    <property name="collision" type="bool" value="true"/>
   </properties>
  </object>
  <object id="25" name="collision-0010" x="256.5" y="160.708" width="31" height="25.25">
   <properties>
    <property name="collision" type="bool" value="true"/>
   </properties>
  </object>
  <object id="26" name="collision-0011" x="256.833" y="224.042" width="31" height="25.25">
   <properties>
    <property name="collision" type="bool" value="true"/>
   </properties>
  </object>
  <object id="27" name="collision-0012" x="256.5" y="288.708" width="31" height="25.25">
   <properties>
    <property name="collision" type="bool" value="true"/>
   </properties>
  </object>
  <object id="28" name="collision-0013" x="256.5" y="352.375" width="31" height="25.25">
   <properties>
    <property name="collision" type="bool" value="true"/>
   </properties>
  </object>
  <object id="29" name="collision-0014" x="321.167" y="160.375" width="31" height="25.25">
   <properties>
    <property name="collision" type="bool" value="true"/>
   </properties>
  </object>
  <object id="30" name="collision-0015" x="320.833" y="225.042" width="31" height="25.25">
   <properties>
    <property name="collision" type="bool" value="true"/>
   </properties>
  </object>
  <object id="31" name="collision-0016" x="320.833" y="289.042" width="31" height="25.25">
   <properties>
    <property name="collision" type="bool" value="true"/>
   </properties>
  </object>
  <object id="32" name="collision-0017" x="320.833" y="352.375" width="31" height="25.25">
   <properties>
    <property name="collision" type="bool" value="true"/>
   </properties>
  </object>
  <object id="33" name="collision-0018" x="384.5" y="160.375" width="31" height="25.25">
   <properties>
    <property name="collision" type="bool" value="true"/>
   </properties>
  </object>
  <object id="34" name="collision-0019" x="384.5" y="224.375" width="31" height="25.25">
   <properties>
    <property name="collision" type="bool" value="true"/>
   </properties>
  </object>
  <object id="35" name="collision-0020" x="384.833" y="288.375" width="31" height="25.25">
   <properties>
    <property name="collision" type="bool" value="true"/>
   </properties>
  </object>
  <object id="36" name="collision-0021" x="384.5" y="352.708" width="31" height="25.25">
   <properties>
    <property name="collision" type="bool" value="true"/>
   </properties>
  </object>
  <object id="39" name="market_07" x="189.201" y="283.773" width="38.2651" height="40.4546">
   <properties>
    <property name="component" value="market"/>
    <property name="item" value="teleportScroll"/>
    <property name="max_x" type="int" value="256"/>
    <property name="max_y" type="int" value="4256"/>
    <property name="spritesheet" value="base_pipo"/>
    <property name="x" type="int" value="0"/>
    <property name="y" type="int" value="3904"/>
   </properties>
  </object>
  <object id="40" name="market_08" x="252.867" y="284.106" width="38.2651" height="40.4546">
   <properties>
    <property name="component" value="market"/>
    <property name="item" value="lootBox"/>
    <property name="max_x" type="int" value="256"/>
    <property name="max_y" type="int" value="4256"/>
    <property name="spritesheet" value="base_pipo"/>
    <property name="x" type="int" value="0"/>
    <property name="y" type="int" value="3968"/>
   </properties>
  </object>
  <object id="41" name="market_09" x="317.322" y="284.803" width="38.2651" height="40.4546">
   <properties>
    <property name="component" value="market"/>
    <property name="item" value="lootSack"/>
    <property name="max_x" type="int" value="256"/>
    <property name="max_y" type="int" value="4256"/>
    <property name="spritesheet" value="base_pipo"/>
    <property name="x" type="int" value="64"/>
    <property name="y" type="int" value="3936"/>
   </properties>
  </object>
  <object id="43" name="npc" x="112.667" y="184.667">
   <properties>
    <property name="job" value="shop-1"/>
    <property name="sprite" value="female-7"/>
   </properties>
   <point/>
  </object>
 </objectgroup>
</map>
